X: 305752
M: 2/4
L: 1/16
K: C
ef |\
(ga)g^f g2g=f | (ef)ed c2de | (fg)fe f2fe | ded^c d2ef |\
gag^f g2g=f | efed c2cd | (fg)fe dcBd | c2e2"^D.C."c2 |]
(_A4 G2)GG | ^F2G2d2G2 | (_A4 G2)GG | ^F2G2e2G2 |\
(_A4 G2)GG | ^F2G2d2GG | ^F2G2f2B2 | c6 "^D.C."y |]


